X:111
T:J'aloie l'autrier errant
R:Pastourelle
C:Thibault de Champagne
O:1201-1253
M:6/8
K:C
%%maxshrink 0.5
cde cde | f2f e2z | ecd e3 | 
d2z z3 | ccB AAB | c2d c2z | e2g afe |
fed c2z | cde cde | f2f e2z | ecd e3 |
d2z z3 | ccB AAB | c2d c2z | e2g afe | fed c2z |
f2e d{edc}BA | Bcd c2z | efg afe | 
d2c BAB | c2z z3 | dcB cBA |
BcB dcB | cde {f}e{d}cd | d2c2B2 | c6 |]
 



%%header "$P0	 $IR 	$P1"
%%footer $D - Éditions Galouvielle - 2009 - À usage librement privé dans le cadre familial

